www/assets/icons/sensors_off.svg

<svg width="24" height="24" viewBox="0 0 24 24" xmlns="http://www.w3.org/2000/svg" fill='currentColor'><path d="M8.44501 10.255C8.35501 10.585 8.30501 10.935 8.30501 11.295C8.30501 12.395 8.75501 13.395 9.47501 14.125L8.05501 15.545C6.97501 14.455 6.30501 12.955 6.30501 11.295C6.30501 10.365 6.51501 9.49498 6.88501 8.70498L5.41501 7.23498C4.70501 8.42498 4.30501 9.81498 4.30501 11.295C4.30501 13.505 5.20501 15.505 6.65501 16.945L5.23501 18.365C3.42501 16.555 2.30501 14.055 2.30501 11.295C2.30501 9.25498 2.91501 7.36498 3.96501 5.78498L1.69501 3.51498L3.10501 2.10498L21.485 20.485L20.075 21.895L8.44501 10.255ZM17.725 13.885C18.095 13.095 18.305 12.225 18.305 11.295C18.305 9.63498 17.635 8.13498 16.545 7.05498L15.125 8.47498C15.855 9.19498 16.305 10.195 16.305 11.295C16.305 11.655 16.255 12.005 16.165 12.335L17.725 13.885ZM20.305 11.295C20.305 12.775 19.905 14.165 19.195 15.355L20.645 16.805C21.695 15.225 22.305 13.335 22.305 11.295C22.305 8.53498 21.185 6.03498 19.375 4.22498L17.955 5.64498C19.405 7.08498 20.305 9.08498 20.305 11.295Z"/></svg>

<svg xmlns="http://www.w3.org/2000/svg" width="24" height="24" viewBox="0 0 24 24" fill='currentColor'><path d="M8.445 10.255c-.09.33-.14.68-.14 1.04 0 1.1.45 2.1 1.17 2.83l-1.42 1.42a6.02 6.02 0 0 1-1.75-4.25c0-.93.21-1.8.58-2.59l-1.47-1.47a7.9 7.9 0 0 0-1.11 4.06c0 2.21.9 4.21 2.35 5.65l-1.42 1.42a9.97 9.97 0 0 1-2.93-7.07c0-2.04.61-3.93 1.66-5.51l-2.27-2.27 1.41-1.41 18.38 18.38-1.41 1.41zm9.28 3.63c.37-.79.58-1.66.58-2.59 0-1.66-.67-3.16-1.76-4.24l-1.42 1.42a3.95 3.95 0 0 1 1.04 3.86zm2.58-2.59c0 1.48-.4 2.87-1.11 4.06l1.45 1.45a9.9 9.9 0 0 0 1.66-5.51c0-2.76-1.12-5.26-2.93-7.07l-1.42 1.42a7.94 7.94 0 0 1 2.35 5.65"/></svg>
